icons/door-closed-line.svg

<svg width="24" height="24" fill="none" xmlns="http://www.w3.org/2000/svg"><g clip-path="url(#a)"><path d="M3 21v-2h2V4a1 1 0 0 1 1-1h12a1 1 0 0 1 1 1v15h2v2H3ZM17 5H7v14h10V5Zm-2 6v2h-2v-2h2Z" /></g><defs><clipPath id="a"><path fill="#fff" d="M0 0h24v24H0z"/></clipPath></defs></svg>

<svg xmlns="http://www.w3.org/2000/svg" width="24" height="24" fill="none"><g clip-path="url(#a)"><g><path fill="#121212" d="M3 21V19H5V4C5 3.448 5.448 3 6 3H18C18.552 3 19 3.448 19 4V19H21V21H3ZM17 5H7V19H17V5ZM15 11V13H13V11H15Z"/></g></g><defs><clipPath id="a"><rect width="24" height="24" fill="white"/></clipPath></defs></svg>
